X:1
T:Huckleberry Hunting
M:4/4
L:1/16
K:F
 F3 D| C4 C3 D F4 G3 A| B3 G A3 F D2 C4 GA| B6 AG A6 GF| G4 c4 C4|\
 A3 B| c4 c3 A B4 A3 G| F3 G F3 D C3 D F3 C| F2 F4 G2 A4 G4| F8 z4||\
